X:1
T:The Male Female Highwayman
M:4/4
L:1/4
K:D
 A| F E D A| F E D A| F E D C| B,2 z B,| B A G F| G F E D| C D E C|\
 A,2 z A| A G F E| D C B, A| B A G F| E D C A,| B, C D E| F G A A/2A/2|\
 F A E A| D2 D D| C E E F| E2 z E| D F F G| F2 z A| G F E D| C B, A, A,/2A,/2|\
 B, D D C| D3||
